X:1
T:Title
%%score { ( 1 4 5 ) | ( 2 3 6 ) }
L:1/8
M:6/8
K:Ab
V:1 treble nm="Grand Piano"
V:4 treble 
V:5 treble 
V:2 bass 
V:3 bass 
V:6 bass 
V:1
 z3 z2[Q:1/4=75] [CE] | [CE][CA][CB] [DA][B,DG][A,DF] | [G,DE][B,EG][EGd] .[EAc]2 [_Gc] | %3
 [Fd][Fc][FB] [FA][FB][Ac] |[M:5/8] c3 B2 |[M:1/8] B |[M:3/4] Bc [=DB]B eB | z2 z .B3 | %8
 cB c[A=d] [Ac][AB] | e4 z2 | z2 z B z2 | E6 | d2 [DEB]c z [Ec] | B6 | z z/ B/ c .e3 | %15
 [Ec][EB] [EA] .[DF]3 |[M:7/8] [FB]>AF EA3/2B3/2 |[M:5/8] [CA]-[CA]- [CA]3 |] %18
V:2
 z3 z2 [A,,A,] | [A,,A,][A,,E,][A,,E,] [B,,E,]B,,B,, | z3 .A,3[K:treble] | %3
 [D,A,][D,A,][D,A,] [=D,B,][D,A,][D,F,] |[M:5/8] [E,E]3- [E,G,E]2 |[M:1/8] [G,E] | %6
[M:3/4] [F,A,=D][F,A,D] [B,,A,][E,G,E] [G,B,E][G,B,E] | %7
 [F,A,=D][F,A,D] [B,,A,][E,G,E] [F,A,][G,B,E] | [A,E][G,B,E] [A,E][F,B,] [F,C][F,=D] | B,6 | %10
 [A,E]2 [C,A,] [D,A,]2 [F,A,D] | [A,C]2 [A,,F,] .[A,,E,]3 | %12
 [G,,B,E]2 .G,,2[K:treble] e[K:bass][C,A,] | [E,G,E]2 [F,A,] .[G,D]3 | E2[K:treble] z2 z2 | %15
 [A,,A,][B,,G,] [C,A,] .[D,A,]3 |[M:7/8] A,2 z z z z2 |[M:5/8] [A,,A,]-[A,,A,]- [A,,A,]3 |] %18
V:3
 x6 | x6 | E,E,E, z[K:treble] GA, | x6 |[M:5/8] A,3 z2 |[M:1/8] x |[M:3/4] x6 | x6 | x6 | %9
 E,F, G,4 | x6 | x6 | z2 z .A,,3[K:treble][K:bass] | x6 | .[A,C]>[K:treble]E [A,E] .[A,CA]3 | x6 | %16
[M:7/8] D,->[D,F,D][=D,A,_C] [E,A,=C]2- [E,A,C]<[E,A,D] |[M:5/8] x5 |] %18
V:4
 x6 | x6 | x6 | x6 |[M:5/8] x5 |[M:1/8] x |[M:3/4] x6 | Bc .[=DB]2 DB | x6 | z2 B4 | %10
 c2 [EA]F- [FA]F | z2 D .C3 | z2 z .[CA]3 | z2 =D .E3 | c2 z2 z2 | x6 |[M:7/8] x7 |[M:5/8] x5 |] %18
V:5
 x6 | x6 | x6 | x6 |[M:5/8] x5 |[M:1/8] x |[M:3/4] x6 | x6 | x6 | GA z d3 | x6 | x6 | x6 | x6 | %14
 z D z2 z2 | x6 |[M:7/8] x7 |[M:5/8] x5 |] %18
V:6
 x6 | x6 | x4[K:treble] x2 | x6 |[M:5/8] x5 |[M:1/8] x |[M:3/4] x6 | x6 | x6 | x6 | x6 | x6 | %12
 x4[K:treble] x[K:bass] x | x6 | z A,[K:treble] z2 z2 | x6 |[M:7/8] x7 |[M:5/8] x5 |] %18

